X:1
T:I Will Follow Thee
T:I Will Follow Thee
T:Frederick Augustus Fillmore
T:Fronia Smith Savage, 1893
T:Public Domain Courtesy of the Cyber Hymnal™
C:Frederick Augustus Fillmore
Z:Public Domain
Z:Courtesy of the Cyber Hymnal™
%%score ( 1 2 ) ( 3 4 )
L:1/8
Q:1/4=97
M:3/4
K:Ab
V:1 treble 
V:2 treble 
V:3 bass 
V:4 bass 
V:1
 [Ec]>[Fd] | [Ec]2 [DB]2 [DB]>[D=A] | [DB]4 [DB]>[Ec] | [DB]2 [CA]2 [CA]>[=B,G] | [CA]4 [CA]>[EG] | %5
w: 1.~I have|wan- dered far a-|way, Sav- ior,|from Thy path a-|stray; Like a|
w: 2.~Teach me|all Thy grace to|know, As the|thorn- y way I|go, Help me|
w: 3.~There’s no|joy a- part from|Thee, Long I|sought it faith- ful-|ly; Now I|
 [DF]2 [FA]2 [EG]>[DF] | ([CE]2 [CA]2) [Ec]>[_Ge] | [Fd]2 [DF]2 [DG]>[DE] | [CA]4 || %9
w: wea- ry child I|come, * Seek- ing|rest and peace in|Thee.|
w: curb my stub- born|will, * Yield- ing|gent- ly un- to|Thee.|
w: give my- self and|all, * Give up|all and fol- low|Thee.|
[M:4/4]"^Refrain" [CA][CG] | [DF][DF] [DF]2 [FA]2 [Fd][DF] | [DF][CE] [CE]4 [EA][EB] | %12
w: |||
w: I will|fol- low Thee, yes, I will|fol- low Thee, Where- so-|
w: |||
 [Ec]2 [Ec]2 [Ec][EA][Ed][Ec] | [EB]6 [=Ec][EB] | [FA][FA] [FA]2 [FA]2 [Fc][FA] | %15
w: |||
w: e’er Thou lead- est I will|go; I will|fol- low Thee, yes, I will|
w: |||
 [FB][FA] [DF]4 [DG][DF] | [CE]2 [EA]2 (AG) (FG) | [CA]6 |] %18
w: |||
w: fol- low Thee, Fol- low|where Thou lead- * est *|me.|
w: |||
V:2
 x2 | x6 | x6 | x6 | x6 | x6 | x6 | x6 | x4 ||[M:4/4] x2 | x8 | x8 | x8 | x8 | x8 | x8 | x4 D2 D2 | %17
 x6 |] %18
V:3
 [A,,A,]>[A,,A,] | [E,A,]2 [E,G,]2 [E,G,]>[E,^F,] | [E,G,]4 [E,G,]>[E,G,] | %3
 [A,,A,]2 [A,,A,]2 [A,,E,]>[A,,E,] | [A,,E,]4 [A,,A,]>[C,A,] | [D,A,]2 [D,A,]2 [D,A,]>[D,A,] | %6
 [A,,A,]4 [A,,A,]>[C,A,] | [D,A,]2 [D,A,]2 E,>E, | [A,,E,]4 ||[M:4/4] [A,,A,][A,,A,] | %10
 [D,A,][D,A,] [D,A,]2 [D,D]2 [D,A,][D,A,] | [A,,A,][A,,A,] [A,,A,]4 [C,A,][E,G,] | %12
 A,2 A,2 A,[A,C][G,B,]A, | [E,G,]6 [C,G,][C,C] | [F,C][F,C] [F,C]2 [F,C]2 [F,A,][F,C] | %15
 [D,D][D,D] [D,A,]4 [D,A,][D,A,] | [E,A,]2 [E,C]2 [E,B,]2 [E,B,]2 | [A,,A,]6 |] %18
V:4
 x2 | x6 | x6 | x6 | x6 | x6 | x6 | x4 E,>E, | x4 ||[M:4/4] x2 | x8 | x8 | A,2 A,2 A, x A, x | x8 | %14
 x8 | x8 | x8 | x6 |] %18

